X: 1
T: Grindstone, The
M: 4/4
L: 1/8
R: reel
K: Ddor
A2|:dcAG FDD2|FDD2 EDCE|DEFG Adc2|AcAG FDD2:|
d2de f2fe|dedc dcAc|defg agfa|gfeg fedf|
a2af g2ge|fedf edcA|dcAG FDDF|EDCE D2|
